ids-wordpress/site-IdS/assets/images/projetos/icones-ferramentasetec/js.svg

<svg width="37" height="36" viewBox="0 0 37 36" fill="none" xmlns="http://www.w3.org/2000/svg">
<g clip-path="url(#clip0_694_1603)">
<path d="M17.2969 0.14813C28.5129 -0.654821 37.4392 8.46685 36.2088 19.6879C34.8122 32.4323 20.1777 39.3227 9.29662 32.6543C-5.21865 23.7597 0.174944 1.37475 17.2969 0.14813ZM17.8031 1.2885C2.94912 2.11682 -3.4859 20.3792 7.81376 30.0831C15.5071 36.6894 27.4245 34.7803 32.7141 26.2053C39.6629 14.9425 30.9281 0.556582 17.8031 1.2885Z" fill="#F75705"/>
<path d="M22.8747 9.3987C24.3601 9.24775 28.177 9.63971 28.1097 11.7073C28.0793 12.6384 27.2053 13.4591 26.2666 13.4198C25.328 13.3805 23.5927 12.282 22.5766 13.2815C21.3373 14.4993 25.0857 15.528 25.7351 15.8426C30.6264 18.2058 29.0484 24.2425 23.977 24.6928C22.0997 24.8603 17.3238 24.2298 18.4769 21.3491C19.2101 19.5187 20.7906 20.7491 21.9119 21.0586C22.7834 21.2984 24.4654 21.5685 24.7483 20.3863C25.0819 18.9935 22.1479 18.391 21.2472 17.9216C16.9699 15.6917 18.0088 9.89341 22.8747 9.39997V9.3987ZM25.2645 21.6091C24.3576 22.5618 22.6235 22.3487 21.4781 21.9973C20.8743 21.8121 20.032 21.1055 19.5462 21.6586C18.5137 22.8358 21.7204 23.6222 22.4586 23.678C25.1301 23.8823 28.078 22.4692 27.5338 19.3639C26.9732 16.1635 22.1631 16.4565 21.4781 14.5196C20.7284 12.3999 22.7986 11.7264 24.4831 11.8951C25.4142 11.9889 26.9643 13.1407 26.9935 11.4219C24.2573 9.31752 19.0718 10.2714 19.7606 14.5868C20.2578 17.6997 25.3216 17.3559 25.7859 19.5884C25.9305 20.2861 25.7592 21.0865 25.2633 21.6066L25.2645 21.6091Z" fill="#F75705"/>
<path d="M14.7526 9.39111C15.9006 9.15263 16.8798 9.69554 17.1881 10.827C16.7746 13.9792 18.1737 20.6438 16.1796 23.1085C14.7171 24.9161 11.3492 25.1888 9.42623 24.037C8.17804 23.2886 7.69221 21.8172 8.88712 20.7605C10.3345 19.4806 11.367 21.8261 12.7953 21.1182C13.2786 20.8785 13.3547 20.4371 13.3991 19.9487C13.6566 17.1859 13.1099 13.9691 13.4105 11.2152C13.4993 10.3983 13.8697 9.57504 14.7551 9.39111H14.7526ZM15.2638 10.3996C14.7602 10.4414 14.5864 10.7332 14.5319 11.1962C14.216 13.893 14.7767 17.1885 14.5382 19.9474C14.3822 21.7588 13.3141 22.6201 11.4837 22.2307C10.7873 22.0823 9.63299 20.6819 9.359 21.9998C9.13955 23.054 10.9941 23.6146 11.8097 23.678C13.8913 23.8404 15.8562 22.8079 16.0604 20.5817C16.3369 17.5614 15.8384 14.1314 16.0604 11.0655C16.0693 10.6545 15.6519 10.3666 15.2625 10.3996H15.2638Z" fill="#F75705"/>
</g>
<defs>
<clipPath id="clip0_694_1603">
<rect width="35.4123" height="35.1434" fill="white" transform="translate(0.910919 0.0982666)"/>
</clipPath>
</defs>
</svg>

<svg xmlns="http://www.w3.org/2000/svg" width="37" height="36" fill="none"><g fill="#F75705" clip-path="url(#a)"><path d="M17.297.148c11.216-.803 20.142 8.319 18.912 19.54-1.397 12.744-16.031 19.635-26.912 12.966C-5.22 23.76.175 1.374 17.297.148Zm.506 1.14C2.95 2.117-3.486 20.38 7.813 30.084c7.694 6.606 19.611 4.697 24.901-3.878C39.663 14.943 30.928.557 17.804 1.29Z"/><path d="M22.875 9.399c1.485-.151 5.302.24 5.235 2.308-.03.931-.905 1.752-1.843 1.713-.939-.04-2.674-1.138-3.69-.139-1.24 1.218 2.509 2.247 3.158 2.562 4.891 2.363 3.313 8.4-1.758 8.85-1.877.167-6.653-.463-5.5-3.344.733-1.83 2.314-.6 3.435-.29.871.24 2.553.51 2.836-.673.334-1.392-2.6-1.995-3.5-2.464-4.278-2.23-3.24-8.029 1.627-8.522v-.001Zm2.39 12.21c-.907.953-2.642.74-3.787.388-.604-.185-1.446-.892-1.932-.338-1.032 1.177 2.174 1.963 2.913 2.019 2.671.204 5.619-1.209 5.075-4.314-.56-3.2-5.37-2.908-6.056-4.844-.75-2.12 1.32-2.794 3.005-2.625.931.094 2.481 1.246 2.51-.473-2.736-2.104-7.921-1.15-7.232 3.165.497 3.113 5.56 2.769 6.025 5.001.144.698-.027 1.498-.523 2.019l.002.002ZM14.753 9.391c1.148-.238 2.127.305 2.435 1.436-.413 3.152.986 9.817-1.008 12.281-1.463 1.808-4.83 2.08-6.754.929-1.248-.748-1.734-2.22-.539-3.276 1.447-1.28 2.48 1.065 3.908.357.484-.24.56-.68.604-1.17.258-2.762-.29-5.979.012-8.733.088-.817.459-1.64 1.344-1.824h-.002Zm.51 1.009c-.503.041-.677.333-.731.796-.316 2.697.245 5.993.006 8.751-.156 1.812-1.224 2.673-3.054 2.284-.697-.149-1.851-1.55-2.125-.231-.22 1.054 1.635 1.615 2.45 1.678 2.082.162 4.047-.87 4.251-3.096.277-3.02-.222-6.45 0-9.517.01-.41-.408-.698-.797-.665Z"/></g><defs><clipPath id="a"><path fill="#fff" d="M.91.098h35.413v35.143H.91z"/></clipPath></defs></svg>
